X:1
T:Walking the Floor
M:6/8
L:1/8
C:As played by Bill Lamey "Full Circle"
R:jig
Z:Transcribed by Terry Traub 2002-02-20
K:Am
|:e| "Am" AAA e2d|"Am" efg "D"edB|"G" GGG d2G|"G" Bge "Em"dBG|\
 "Am"AAA e2d|"Am"efg edB|"G"GGG edB|"Am"BAA A2 :|
|:e| "Am"a3 e2d| "Am"gee edB|"G" g3 d2B|"G"Gge dBG|\
 "Am"a3 e2d|"Am"gee edB|"G"GGG edB|"Am"BAA A2 :|
